svg/系统配置6.svg

<svg width="48" height="48" viewBox="0 0 48 48" fill="none" xmlns="http://www.w3.org/2000/svg"><rect width="48" height="48" fill="#DADADA"/><mask id="path-2-inside-1_2483_15959" fill="white"><path d="M249 89L-1191 88.9999L-1191 -20.0001L249 -20L249 89Z"/></mask><path d="M249 89L-1191 88.9999L-1191 -20.0001L249 -20L249 89Z" fill="white"/><rect width="48" height="48" rx="10" fill="url(#paint0_linear_2483_15959)"/><path opacity="0.8" d="M24.0008 39.6002C32.3955 39.6002 39.2008 32.7949 39.2008 24.4002C39.2008 16.0055 32.3955 9.2002 24.0008 9.2002C15.6061 9.2002 8.80078 16.0055 8.80078 24.4002C8.80078 32.7949 15.6061 39.6002 24.0008 39.6002Z" fill="url(#paint1_linear_2483_15959)" fill-opacity="0.6"/><path d="M23.998 27.2402C29.7012 27.2402 34.3543 30.3651 35.2002 34.3662C32.4542 37.4533 28.454 39.4004 23.998 39.4004C19.5421 39.4004 15.5419 37.4533 12.7959 34.3662C13.6418 30.3651 18.2949 27.2403 23.998 27.2402ZM23.7979 14.2002C26.8972 14.2002 29.3982 16.624 29.3984 19.5996C29.3984 22.5754 26.8973 25 23.7979 25C20.6985 24.9999 18.1982 22.5753 18.1982 19.5996C18.1985 16.6241 20.6986 14.2003 23.7979 14.2002Z" fill="url(#paint2_linear_2483_15959)" stroke="url(#paint3_linear_2483_15959)" stroke-width="0.4"/><defs><linearGradient id="paint0_linear_2483_15959" x1="24" y1="48" x2="24" y2="2.28882e-05" gradientUnits="userSpaceOnUse"><stop stop-color="#74ABDC"/><stop offset="1" stop-color="#52D8E1"/></linearGradient><linearGradient id="paint1_linear_2483_15959" x1="24.0008" y1="9.2002" x2="24.0008" y2="39.6002" gradientUnits="userSpaceOnUse"><stop stop-color="#BFF6FF"/><stop offset="1" stop-color="#C6EBFF"/></linearGradient><linearGradient id="paint2_linear_2483_15959" x1="23.9981" y1="14" x2="23.9981" y2="39.6" gradientUnits="userSpaceOnUse"><stop stop-color="white"/><stop offset="1" stop-color="#94E8FF"/></linearGradient><linearGradient id="paint3_linear_2483_15959" x1="23.9981" y1="14" x2="23.9981" y2="39.6" gradientUnits="userSpaceOnUse"><stop offset="0.0961538" stop-color="white"/><stop offset="1" stop-color="#A1FAFF"/></linearGradient></defs></svg>

<svg fill="none" viewBox="0 0 48 48"><path fill="#DADADA" d="M0 0h48v48H0z"/><path fill="white" d="M249 89h-1440V-20H249z"/><rect width="48" height="48" fill="url(#a)" rx="10"/><path fill="url(#b)" fill-opacity=".6" d="M24 39.6c8.395 0 15.2-6.805 15.2-15.2S32.396 9.2 24 9.2 8.8 16.006 8.8 24.4c0 8.395 6.806 15.2 15.2 15.2" opacity=".8"/><path fill="url(#c)" stroke="url(#d)" stroke-width=".4" d="M23.998 27.24c5.703 0 10.356 3.125 11.202 7.126A14.95 14.95 0 0 1 23.998 39.4a14.95 14.95 0 0 1-11.202-5.034c.846-4 5.499-7.126 11.202-7.126Zm-.2-13.04c3.1 0 5.6 2.424 5.6 5.4 0 2.975-2.5 5.4-5.6 5.4s-5.6-2.425-5.6-5.4 2.5-5.4 5.6-5.4Z"/><defs><linearGradient id="a" x1="24" x2="24" y1="48" y2="0" gradientUnits="userSpaceOnUse"><stop stop-color="#74ABDC"/><stop offset="1" stop-color="#52D8E1"/></linearGradient><linearGradient id="b" x1="24.001" x2="24.001" y1="9.2" y2="39.6" gradientUnits="userSpaceOnUse"><stop stop-color="#BFF6FF"/><stop offset="1" stop-color="#C6EBFF"/></linearGradient><linearGradient id="c" x1="23.998" x2="23.998" y1="14" y2="39.6" gradientUnits="userSpaceOnUse"><stop stop-color="white"/><stop offset="1" stop-color="#94E8FF"/></linearGradient><linearGradient id="d" x1="23.998" x2="23.998" y1="14" y2="39.6" gradientUnits="userSpaceOnUse"><stop offset=".096" stop-color="white"/><stop offset="1" stop-color="#A1FAFF"/></linearGradient></defs></svg>
